X: 02107
T: PUSSYCAT POLKA
C: Bob McQuillen Jan'75
B: Bob's Note Book 1&2 #107
R: polka, march
Z: 2019 John Chambers <jc:trillian.mit.edu>
M: C
L: 1/4
K: D
zA \
| A2FB | A2FA | AAFB | A2FA | G2EA | G2EA | A>BcB | AGFG |
| A2FB | A2FG | AAFB | A2FA | G2EA | G2EA | A>GFE | D2 ||
|| A,2 \
| F4- | F2GA | G4- | G2A,2 | E4- | E2FG | F4- | F2A,2 |\
| F4- | F2GA | B4- | B2cB | A3G | F2E2 | D4- D2 |]
%%begintext align
%% Did you ever have a Siamese Cat?
%% One named T'ai-t'ai adopted us a
%% year ago and we haven't been the same since.
%%endtext

%%sep 1 1 500

%%sep 1 1 500

